source/images/icons/icon-utility/phone.svg

<?xml version="1.0" encoding="UTF-8"?>
<svg width="24px" height="24px" viewBox="0 0 24 24" version="1.1" xmlns="http://www.w3.org/2000/svg" xmlns:xlink="http://www.w3.org/1999/xlink">
    <!-- Generator: Sketch 55.2 (78181) - https://sketchapp.com -->
    <title>Icons/24px/Phone</title>
    <desc>Created with Sketch.</desc>
    <g id="Icons/24px/Phone" stroke="none" stroke-width="1" fill="none" fill-rule="evenodd">
        <path d="M14.619796,13.9737774 C15.455606,13.1489062 16.6954348,12.8850115 17.7930293,13.2967817 C18.6348196,13.610275 19.5094571,13.8277246 20.4002537,13.9449789 C20.9478153,14.0170537 21.3332735,14.5193682 21.2611988,15.0669297 C21.189124,15.6144913 20.6868095,15.9999495 20.139248,15.9278748 C19.0991711,15.7909709 18.0779417,15.5370761 17.0927826,15.1701873 C16.7227036,15.0313507 16.3054523,15.1201617 16.0286352,15.3933339 L14.7515312,16.6679081 C14.4333871,16.985422 13.9424899,17.0516576 13.5515718,16.8298157 C10.8775167,15.312318 8.66333849,13.1025258 7.1426908,10.4335255 C6.91950542,10.0417965 6.98604512,9.54916368 7.30515824,9.23068268 L8.57831275,7.96007225 C8.85526204,7.68056093 8.94378578,7.26630515 8.80451498,6.89652996 C8.43761331,5.91522707 8.18311838,4.8956354 8.04714939,3.86641924 C7.97628606,3.3660538 7.5439275,2.99496199 7.02608181,3.00000035 L4.01024056,2.99999991 C3.72596809,3.00026709 3.45503999,3.11970083 3.26370725,3.32888634 C3.07277371,3.53763538 2.97864163,3.8165671 3.00255594,4.08204533 C3.31598881,7.02772942 4.32028655,9.85835266 5.93887377,12.3520001 C7.40393463,14.6530121 9.35873049,16.6039358 11.6722459,18.0711782 C14.1526442,19.6765212 16.975849,20.6788468 19.8970091,20.9957901 C20.1810489,21.0214094 20.462658,20.9263603 20.672523,20.734205 C20.8819495,20.5424512 21.0005319,20.2717781 20.999372,19.9845436 L20.999372,17.9737384 C20.999372,17.4214536 21.4470873,16.9737384 21.999372,16.9737384 C22.5516568,16.9737384 22.9993886,17.4214536 22.9993886,17.9737384 L22.9993886,19.9804766 C23.0028093,20.8276559 22.6482843,21.6368849 22.0231282,22.2092866 C21.3984106,22.7812867 20.5613091,23.0638262 19.6993669,22.9859185 C16.4497487,22.6335204 13.328216,21.5252791 10.5933401,19.7551844 C8.03970328,18.1357116 5.87459789,15.9748951 4.2565545,13.4335384 C2.47144642,10.6834214 1.36050786,7.55222996 1.01224354,4.27802978 C0.936078005,3.43685421 1.21763331,2.60255092 1.78792168,1.97905043 C2.35781084,1.3559864 3.16354113,1.00079481 4.0093007,0.999900981 L7.01625965,0.999900981 C8.52719485,0.985207234 9.81568223,2.09111137 10.0286499,3.59518279 C10.1460827,4.48380404 10.3638677,5.35632368 10.6770069,6.19384369 C11.0911274,7.29334227 10.8262454,8.53288414 9.99507303,9.37172341 L9.27245763,10.0929074 C10.4563118,11.9469127 12.0328518,13.5199436 13.8910154,14.7011018 L14.619796,13.9737774 Z" id="Icon" fill="#ADB5BD"></path>
    </g>
</svg>

<svg width="24" height="24">
    <title>
        Icons/24px/Phone
    </title>
    <path d="M14.62 13.974a3.013 3.013 0 0 1 3.173-.677c.842.313 1.716.53 2.607.648a1 1 0 0 1-.26 1.983 13.938 13.938 0 0 1-3.047-.758 1.012 1.012 0 0 0-1.064.223l-1.277 1.275a1 1 0 0 1-1.2.162 17.074 17.074 0 0 1-6.41-6.396 1 1 0 0 1 .163-1.203l1.273-1.27c.277-.28.366-.695.227-1.064-.367-.982-.622-2.001-.758-3.03-.07-.5-.503-.872-1.02-.867H4.01a1.013 1.013 0 0 0-1.007 1.082 18.846 18.846 0 0 0 2.936 8.27 18.6 18.6 0 0 0 5.733 5.72 18.91 18.91 0 0 0 8.225 2.924 1.008 1.008 0 0 0 1.102-1.011v-2.011a1 1 0 1 1 2 0v2.006a3.005 3.005 0 0 1-.976 2.23 3.023 3.023 0 0 1-2.324.776 20.916 20.916 0 0 1-9.106-3.23 20.58 20.58 0 0 1-6.336-6.322 20.85 20.85 0 0 1-3.245-9.156 3.005 3.005 0 0 1 .776-2.299A3.014 3.014 0 0 1 4.009 1h3.007a3.012 3.012 0 0 1 3.013 2.596c.117.889.335 1.761.648 2.599.414 1.1.15 2.339-.682 3.178l-.723.72a15.074 15.074 0 0 0 4.619 4.61l.729-.728z" fill="#ADB5BD" fill-rule="evenodd"/>
</svg>
